src/lib/packages/icons/src/assets/line/percent.svg

<svg width="24" height="24" viewBox="0 0 24 24" fill="none" xmlns="http://www.w3.org/2000/svg">
<path d="M4 20.75C3.808 20.75 3.616 20.6771 3.47 20.5301C3.177 20.2371 3.177 19.762 3.47 19.469L19.47 3.46902C19.763 3.17602 20.238 3.17602 20.531 3.46902C20.824 3.76202 20.824 4.23705 20.531 4.53005L4.53101 20.5301C4.38401 20.6771 4.192 20.75 4 20.75ZM20.75 17.5C20.75 15.708 19.292 14.25 17.5 14.25C15.708 14.25 14.25 15.708 14.25 17.5C14.25 19.292 15.708 20.75 17.5 20.75C19.292 20.75 20.75 19.292 20.75 17.5ZM19.25 17.5C19.25 18.465 18.465 19.25 17.5 19.25C16.535 19.25 15.75 18.465 15.75 17.5C15.75 16.535 16.535 15.75 17.5 15.75C18.465 15.75 19.25 16.535 19.25 17.5ZM9.75 6.50002C9.75 4.70802 8.292 3.25002 6.5 3.25002C4.708 3.25002 3.25 4.70802 3.25 6.50002C3.25 8.29202 4.708 9.75002 6.5 9.75002C8.292 9.75002 9.75 8.29202 9.75 6.50002ZM8.25 6.50002C8.25 7.46502 7.465 8.25002 6.5 8.25002C5.535 8.25002 4.75 7.46502 4.75 6.50002C4.75 5.53502 5.535 4.75002 6.5 4.75002C7.465 4.75002 8.25 5.53502 8.25 6.50002Z" fill="currentColor"/>
</svg>

<svg xmlns="http://www.w3.org/2000/svg" width="24" height="24" fill="none"><path fill="currentColor" d="M4 20.75a.75.75 0 0 1-.53-1.281l16-16a.75.75 0 1 1 1.061 1.061l-16 16a.748.748 0 0 1-.531.22Zm16.75-3.25a3.254 3.254 0 0 0-3.25-3.25 3.254 3.254 0 0 0-3.25 3.25 3.254 3.254 0 0 0 3.25 3.25 3.254 3.254 0 0 0 3.25-3.25Zm-1.5 0c0 .965-.785 1.75-1.75 1.75s-1.75-.785-1.75-1.75.785-1.75 1.75-1.75 1.75.785 1.75 1.75Zm-9.5-11A3.254 3.254 0 0 0 6.5 3.25 3.254 3.254 0 0 0 3.25 6.5 3.254 3.254 0 0 0 6.5 9.75 3.254 3.254 0 0 0 9.75 6.5Zm-1.5 0c0 .965-.785 1.75-1.75 1.75S4.75 7.465 4.75 6.5s.785-1.75 1.75-1.75 1.75.785 1.75 1.75Z"/></svg>
